svgs/thin/dumbbell.svg

<svg xmlns="http://www.w3.org/2000/svg" viewBox="0 0 640 512"><!--! Font Awesome Pro 6.6.0 by @fontawesome - https://fontawesome.com License - https://fontawesome.com/license (Commercial License) Copyright 2024 Fonticons, Inc. --><path d="M184 48c13.3 0 24 10.7 24 24l0 184 0 184c0 13.3-10.7 24-24 24l-32 0c-13.3 0-24-10.7-24-24l0-64 0-240 0-64c0-13.3 10.7-24 24-24l32 0zM112 408l0 32c0 22.1 17.9 40 40 40l32 0c22.1 0 40-17.9 40-40l0-176 192 0 0 176c0 22.1 17.9 40 40 40l32 0c22.1 0 40-17.9 40-40l0-32c6.7 5 15 8 24 8l16 0c22.1 0 40-17.9 40-40l0-112 24 0c4.4 0 8-3.6 8-8s-3.6-8-8-8l-24 0 0-112c0-22.1-17.9-40-40-40l-16 0c-9 0-17.3 3-24 8l0-32c0-22.1-17.9-40-40-40l-32 0c-22.1 0-40 17.9-40 40l0 176-192 0 0-176c0-22.1-17.9-40-40-40l-32 0c-22.1 0-40 17.9-40 40l0 32c-6.7-5-15-8-24-8L72 96c-22.1 0-40 17.9-40 40l0 112L8 248c-4.4 0-8 3.6-8 8s3.6 8 8 8l24 0 0 112c0 22.1 17.9 40 40 40l16 0c9 0 17.3-3 24-8zM528 136c0-13.3 10.7-24 24-24l16 0c13.3 0 24 10.7 24 24l0 120 0 120c0 13.3-10.7 24-24 24l-16 0c-13.3 0-24-10.7-24-24l0-240zM512 376l0 64c0 13.3-10.7 24-24 24l-32 0c-13.3 0-24-10.7-24-24l0-184 0-184c0-13.3 10.7-24 24-24l32 0c13.3 0 24 10.7 24 24l0 64 0 240zM112 136l0 240c0 13.3-10.7 24-24 24l-16 0c-13.3 0-24-10.7-24-24l0-120 0-120c0-13.3 10.7-24 24-24l16 0c13.3 0 24 10.7 24 24z"/></svg>

<svg xmlns="http://www.w3.org/2000/svg" viewBox="0 0 640 512"><!--! Font Awesome Pro 6.4.2 by @fontawesome - https://fontawesome.com License - https://fontawesome.com/license (Commercial License) Copyright 2023 Fonticons, Inc. --><path d="M184 48c13.3 0 24 10.7 24 24V256 440c0 13.3-10.7 24-24 24H152c-13.3 0-24-10.7-24-24V376 136 72c0-13.3 10.7-24 24-24h32zM112 408v32c0 22.1 17.9 40 40 40h32c22.1 0 40-17.9 40-40V264H416V440c0 22.1 17.9 40 40 40h32c22.1 0 40-17.9 40-40V408c6.7 5 15 8 24 8h16c22.1 0 40-17.9 40-40V264h24c4.4 0 8-3.6 8-8s-3.6-8-8-8H608V136c0-22.1-17.9-40-40-40H552c-9 0-17.3 3-24 8V72c0-22.1-17.9-40-40-40H456c-22.1 0-40 17.9-40 40V248H224V72c0-22.1-17.9-40-40-40H152c-22.1 0-40 17.9-40 40v32c-6.7-5-15-8-24-8H72c-22.1 0-40 17.9-40 40V248H8c-4.4 0-8 3.6-8 8s3.6 8 8 8H32V376c0 22.1 17.9 40 40 40H88c9 0 17.3-3 24-8zM528 136c0-13.3 10.7-24 24-24h16c13.3 0 24 10.7 24 24V256 376c0 13.3-10.7 24-24 24H552c-13.3 0-24-10.7-24-24V136zM512 376v64c0 13.3-10.7 24-24 24H456c-13.3 0-24-10.7-24-24V256 72c0-13.3 10.7-24 24-24h32c13.3 0 24 10.7 24 24v64V376zM112 136V376c0 13.3-10.7 24-24 24H72c-13.3 0-24-10.7-24-24V256 136c0-13.3 10.7-24 24-24H88c13.3 0 24 10.7 24 24z"/></svg>
